icons/workplaces/ignite.svg

<svg height="84" viewBox="0 0 84 84" width="84" xmlns="http://www.w3.org/2000/svg" xmlns:xlink="http://www.w3.org/1999/xlink"><clipPath id="a"><path d="m0 0h84v84h-84z"/></clipPath><g clip-path="url(#a)"><path d="m0 0h84v84h-84z" fill="#fff" transform="translate(.001 .096)"/><path d="m2.144 40.261v-3.081s8.247-.2 11.983-4.159c3.665-3.882 2.608-7.769 2.566-7.917a13.516 13.516 0 0 1 -3.542.469 12.973 12.973 0 0 1 -13.151-12.787 12.973 12.973 0 0 1 13.152-12.786 13.2 13.2 0 0 1 11.748 7.028 23.058 23.058 0 0 1 -1.77 23.224c-6.249 9.141-15.863 10.07-19.512 10.07-.931 0-1.474-.061-1.474-.061z" fill="#d5002b" transform="translate(51.762 8.177)"/><path d="m31.151 50.475v-3.863s-10.238-.252-14.876-5.212c-4.55-4.867-3.238-9.739-3.185-9.925a16.625 16.625 0 0 0 4.4.588 16.18 16.18 0 0 0 16.324-16.033 16.18 16.18 0 0 0 -16.328-16.03 16.361 16.361 0 0 0 -14.586 8.811 29.153 29.153 0 0 0 2.2 29.116c7.758 11.46 19.693 12.624 24.223 12.624a18.149 18.149 0 0 0 1.828-.076z" fill="#211b17" transform="translate(5 25.713)"/></g></svg>

<svg xmlns="http://www.w3.org/2000/svg" xmlns:xlink="http://www.w3.org/1999/xlink" width="84" height="84" viewBox="0 0 84 84"><defs><style>.a{clip-path:url(#b);}.b{fill:#fff;}.c{fill:#d5002b;}.d{fill:#211b17;}</style><clipPath id="b"><rect width="84" height="84"/></clipPath></defs><g id="a" class="a"><rect class="b" width="84" height="84" transform="translate(0.001 0.096)"/><g transform="translate(13.5 12.677)"><g transform="translate(-8.5 -4.5)"><path class="c" d="M2.144,40.261V37.18s8.247-.2,11.983-4.159c3.665-3.882,2.608-7.769,2.566-7.917a13.516,13.516,0,0,1-3.542.469A12.973,12.973,0,0,1,0,12.786,12.973,12.973,0,0,1,13.152,0,13.2,13.2,0,0,1,24.9,7.028,23.058,23.058,0,0,1,23.13,30.252c-6.249,9.141-15.863,10.07-19.512,10.07C2.687,40.322,2.144,40.261,2.144,40.261Z" transform="translate(46.762 0)"/><path class="d" d="M31.151,50.475V46.612S20.913,46.36,16.275,41.4c-4.55-4.867-3.238-9.739-3.185-9.925a16.625,16.625,0,0,0,4.4.588A16.18,16.18,0,0,0,33.814,16.03,16.18,16.18,0,0,0,17.486,0,16.361,16.361,0,0,0,2.9,8.811,29.153,29.153,0,0,0,5.1,37.927c7.758,11.46,19.693,12.624,24.223,12.624A18.149,18.149,0,0,0,31.151,50.475Z" transform="translate(0 17.536)"/></g></g></g></svg>
